X: 110
T:Traveller, The
M:C|
L:1/8
R:Reel
K:G
G2BG dGBG|ABcd cBAG|Bdgd egdB|cBAG FADF|!
G2BG dGBG|ABcd cBAG|Bdgd egdB|1cAFA G3F:|2cAFA G3f|!
|:g2dg egde|g2bg agef|g2dg egdB|cBAG FADf|!
g2dg egde|g2bg agef|gfga gfed|1egfa gdef:|2egfa gedB|]!
